<?xml version='1.0' encoding='UTF-8'?>
<map version="1.10" tiledversion="1.11.2" orientation="orthogonal" renderorder="right-down" width="44" height="28" tilewidth="32" tileheight="32" infinite="0" backgroundcolor="#11151b" nextlayerid="9" nextobjectid="42">
  <properties>
    <property name="displayName" value="IUT Classroom" />
    <property name="description" value="Pixel classroom based on supplied IUT classroom photos." />
  </properties>
  <tileset firstgid="1" name="iut-classroom-tileset" tilewidth="32" tileheight="32" tilecount="160" columns="16">
    <image source="iut-classroom-tileset.png" width="512" height="320" />
  </tileset>
  <layer id="1" name="Ground" width="44" height="28">
    <data encoding="csv">
0,0,0,0,0,0,0,0,0,0,0,0,0,0,0,0,0,0,0,0,0,0,0,0,0,0,0,0,0,0,0,0,0,0,0,0,0,0,0,0,0,0,0,0,
0,1,1,1,1,1,1,1,1,1,1,1,1,1,1,1,1,1,1,1,1,1,1,1,1,1,1,1,1,1,1,1,1,1,1,1,1,1,1,1,1,1,1,0,
0,1,1,1,1,1,1,1,1,1,1,1,1,1,1,1,1,1,1,1,1,1,1,1,1,1,1,1,1,1,1,1,1,1,1,1,1,1,1,1,1,1,1,0,
0,1,1,1,1,1,1,1,1,1,1,1,1,1,1,1,1,1,1,1,1,1,1,1,1,1,1,1,1,1,1,1,1,1,1,1,1,1,1,1,1,1,1,0,
0,1,1,1,1,1,1,1,1,1,1,1,1,1,1,1,1,1,1,1,1,1,1,1,1,1,1,1,1,1,1,1,1,1,1,1,1,1,1,1,1,1,1,0,
0,1,1,1,1,1,1,1,1,1,1,1,1,1,1,1,1,1,1,1,1,1,1,1,1,1,1,1,1,1,1,1,1,1,1,1,1,1,1,1,1,1,1,0,
0,1,1,1,1,1,1,1,1,1,1,1,1,1,1,1,1,1,1,1,1,1,1,1,1,1,1,1,1,1,1,1,1,1,1,1,1,1,1,1,1,1,1,0,
0,1,1,1,1,1,1,1,1,1,1,1,1,1,1,1,1,1,1,1,1,1,1,1,1,1,1,1,1,1,1,1,1,1,1,1,1,1,1,1,1,1,1,0,
0,1,1,1,1,1,1,1,1,1,1,1,1,1,1,1,1,1,1,1,1,1,1,1,1,1,1,1,1,1,1,1,1,1,1,1,1,1,1,1,1,1,1,0,
0,1,1,1,1,1,1,1,1,1,1,1,1,1,1,1,1,1,1,1,1,1,1,1,1,1,1,1,1,1,1,1,1,1,1,1,1,1,1,1,1,1,1,0,
0,1,1,1,1,1,1,1,1,1,1,1,1,1,1,1,1,1,1,1,1,1,1,1,1,1,1,1,1,1,1,1,1,1,1,1,1,1,1,1,1,1,1,0,
0,1,1,1,1,1,1,1,1,1,1,1,1,1,1,1,1,1,1,1,1,1,1,1,1,1,1,1,1,1,1,1,1,1,1,1,1,1,1,1,1,1,1,0,
0,1,1,1,1,1,1,1,1,1,1,1,1,1,1,1,1,1,1,1,1,1,1,1,1,1,1,1,1,1,1,1,1,1,1,1,1,1,1,1,1,1,1,0,
0,1,1,1,1,1,1,1,1,1,1,1,1,1,1,1,1,1,1,1,1,1,1,1,1,1,1,1,1,1,1,1,1,1,1,1,1,1,1,1,1,1,1,0,
0,1,1,1,1,1,1,1,1,1,1,1,1,1,1,1,1,1,1,1,1,1,1,1,1,1,1,1,1,1,1,1,1,1,1,1,1,1,1,1,1,1,1,0,
0,1,1,1,1,1,1,1,1,1,1,1,1,1,1,1,1,1,1,1,1,1,1,1,1,1,1,1,1,1,1,1,1,1,1,1,1,1,1,1,1,1,1,0,
0,1,1,1,1,1,1,1,1,1,1,1,1,1,1,1,1,1,1,1,1,1,1,1,1,1,1,1,1,1,1,1,1,1,1,1,1,1,1,1,1,1,1,0,
0,1,1,1,1,1,1,1,1,1,1,1,1,1,1,1,1,1,1,1,1,1,1,1,1,1,1,1,1,1,1,1,1,1,1,1,1,1,1,1,1,1,1,0,
0,1,1,1,1,1,1,1,1,1,1,1,1,1,1,1,1,1,1,1,1,1,1,1,1,1,1,1,1,1,1,1,1,1,1,1,1,1,1,1,1,1,1,0,
0,1,1,1,1,1,1,1,1,1,1,1,1,1,1,1,1,1,1,1,1,1,1,1,1,1,1,1,1,1,1,1,1,1,1,1,1,1,1,1,1,1,1,0,
0,1,1,1,1,1,1,1,1,1,1,1,1,1,1,1,1,1,1,1,1,1,1,1,1,1,1,1,1,1,1,1,1,1,1,1,1,1,1,1,1,1,1,0,
0,1,1,1,1,1,1,1,1,1,1,1,1,1,1,1,1,1,1,1,1,1,1,1,1,1,1,1,1,1,1,1,1,1,1,1,1,1,1,1,1,1,1,0,
0,1,1,1,1,1,1,1,1,1,1,1,1,1,1,1,1,1,1,1,1,1,1,1,1,1,1,1,1,1,1,1,1,1,1,1,1,1,1,1,1,1,1,0,
0,1,1,1,1,1,1,1,1,1,1,1,1,1,1,1,1,1,1,1,1,1,1,1,1,1,1,1,1,1,1,1,1,1,1,1,1,1,1,1,1,1,1,0,
0,1,1,1,1,1,1,1,1,1,1,1,1,1,1,1,1,1,1,1,1,1,1,1,1,1,1,1,1,1,1,1,1,1,1,1,1,1,1,1,1,1,1,0,
0,1,1,1,1,1,1,1,1,1,1,1,1,1,1,1,1,1,1,1,1,1,1,1,1,1,1,1,1,1,1,1,1,1,1,1,1,1,1,1,1,1,1,0,
0,1,1,1,1,1,1,1,1,1,1,1,1,1,1,1,1,1,1,1,1,1,1,1,1,1,1,1,1,1,1,1,1,1,1,1,1,1,1,1,1,1,1,0,
0,0,0,0,0,0,0,0,0,0,0,0,0,0,0,0,0,0,0,0,0,0,0,0,0,0,0,0,0,0,0,0,0,0,0,0,0,0,0,0,0,0,0,0
</data>
  </layer>
  <layer id="2" name="Structure" width="44" height="28">
    <data encoding="csv">
3,3,3,3,3,3,3,3,3,3,3,3,3,3,3,3,3,3,3,3,3,3,3,3,3,3,3,3,3,3,3,3,3,3,3,3,3,3,3,3,3,3,3,3,
3,0,0,0,0,0,0,0,0,0,0,0,0,0,0,0,0,0,0,0,0,0,0,0,0,0,0,0,0,0,0,0,0,0,0,0,0,0,0,0,0,0,0,3,
3,0,0,0,0,0,0,0,0,0,0,0,0,0,0,0,0,0,0,0,0,0,0,0,0,0,0,0,0,0,0,0,0,0,0,0,0,0,0,0,0,0,0,3,
3,0,0,0,0,0,0,0,0,0,0,0,0,0,0,0,0,0,0,0,0,0,0,0,0,0,0,0,0,0,0,0,0,0,0,0,0,0,0,0,6,0,0,3,
3,0,0,0,0,0,0,0,0,0,0,0,0,0,0,0,0,0,0,0,0,0,0,0,0,0,0,0,0,0,0,0,0,0,0,0,0,0,0,0,6,74,75,76,
3,0,0,0,0,0,0,0,0,0,0,0,0,0,0,0,0,0,0,0,0,0,0,0,0,0,0,0,0,0,0,0,0,0,0,0,0,0,0,0,0,90,91,92,
3,0,0,0,0,0,0,0,0,0,0,0,0,0,0,0,0,0,0,0,0,0,0,0,0,0,0,0,0,0,0,0,0,0,0,0,0,0,0,0,0,0,0,3,
3,0,0,0,0,0,0,0,0,0,0,0,0,0,0,0,0,0,0,0,0,0,0,0,0,0,0,0,0,0,0,0,0,0,0,0,0,0,0,0,0,0,0,3,
3,0,0,0,0,0,0,0,0,0,0,0,0,0,0,0,0,0,0,0,0,0,0,0,0,0,0,0,0,0,0,0,0,0,0,0,0,0,0,0,0,0,0,3,
3,0,0,0,0,0,0,0,0,0,0,0,0,0,0,0,0,0,0,0,0,0,0,0,0,0,0,0,0,0,0,0,0,0,0,0,0,0,0,0,6,0,0,3,
3,0,0,0,0,0,0,0,0,0,0,0,0,0,0,0,0,0,0,0,0,0,0,0,0,0,0,0,0,0,0,0,0,0,0,0,0,0,0,0,6,74,75,76,
3,0,0,0,0,0,0,0,0,0,0,0,0,0,0,0,0,0,0,0,0,0,0,0,0,0,0,0,0,0,0,0,0,0,0,0,0,0,0,0,0,90,91,92,
3,0,0,0,0,0,0,0,0,0,0,0,0,0,0,0,0,0,0,0,0,0,0,0,0,0,0,0,0,0,0,0,0,0,0,0,0,0,0,0,0,0,0,3,
3,0,0,0,0,0,0,0,0,0,0,0,0,0,0,0,0,0,0,0,0,0,0,0,0,0,0,0,0,0,0,0,0,0,0,0,0,0,0,0,0,0,0,3,
3,0,0,0,0,0,0,0,0,0,0,0,0,0,0,0,0,0,0,0,0,0,0,0,0,0,0,0,0,0,0,0,0,0,0,0,0,0,0,0,0,0,0,3,
3,0,0,0,0,0,0,0,0,0,0,0,0,0,0,0,0,0,0,0,0,0,0,0,0,0,0,0,0,0,0,0,0,0,0,0,0,0,0,0,6,0,0,3,
3,0,0,0,0,0,0,0,0,0,0,0,0,0,0,0,0,0,0,0,0,0,0,0,0,0,0,0,0,0,0,0,0,0,0,0,0,0,0,0,6,74,75,76,
3,0,0,0,0,0,0,0,0,0,0,0,0,0,0,0,0,0,0,0,0,0,0,0,0,0,0,0,0,0,0,0,0,0,0,0,0,0,0,0,0,90,91,92,
3,0,0,0,0,0,0,0,0,0,0,0,0,0,0,0,0,0,0,0,0,0,0,0,0,0,0,0,0,0,0,0,0,0,0,0,0,0,0,0,0,0,0,3,
3,0,0,0,0,0,0,0,0,0,0,0,0,0,0,0,0,0,0,0,0,0,0,0,0,0,0,0,0,0,0,0,0,0,0,0,0,0,0,0,0,0,0,3,
3,0,0,0,0,0,0,0,0,0,0,0,0,0,0,0,0,0,0,0,0,0,0,0,0,0,0,0,0,0,0,0,0,0,0,0,0,0,0,0,0,0,0,3,
0,0,0,0,0,0,0,0,0,0,0,0,0,0,0,0,0,0,0,0,0,0,0,0,0,0,0,0,0,0,0,0,0,0,0,0,0,0,0,0,6,0,0,3,
0,0,0,0,0,0,0,0,0,0,0,0,0,0,0,0,0,0,0,0,0,0,0,0,0,0,0,0,0,0,0,0,0,0,0,0,0,0,0,0,6,0,0,3,
3,0,0,0,0,0,0,0,0,0,0,0,0,0,0,0,0,0,0,0,0,0,0,0,0,0,0,0,0,0,0,0,0,0,0,0,0,0,0,0,0,0,0,3,
3,0,0,0,0,0,0,0,0,0,0,0,0,0,0,0,0,0,0,0,0,0,0,0,0,0,0,0,0,0,0,0,0,0,0,0,0,0,0,0,0,0,0,3,
3,0,0,0,0,0,0,0,0,0,0,0,0,0,0,0,0,0,0,0,0,0,0,0,0,0,0,0,0,0,0,0,0,0,0,0,0,0,0,0,0,0,0,3,
3,0,0,0,0,0,0,0,0,0,0,0,0,0,0,0,0,0,0,0,0,0,0,0,0,0,0,0,0,0,0,0,0,0,0,0,0,0,0,0,0,0,0,3,
3,3,3,3,3,3,3,3,3,3,3,3,3,3,3,3,3,3,3,3,3,3,3,3,3,3,3,3,3,3,3,3,3,3,3,3,3,3,3,3,3,3,3,3
</data>
  </layer>
  <layer id="3" name="Furniture" width="44" height="28">
    <data encoding="csv">
0,0,0,0,0,0,0,0,0,0,0,0,0,0,0,0,0,0,0,0,0,0,0,0,0,0,0,0,0,0,0,0,0,0,0,0,0,0,0,0,0,0,0,0,
0,0,0,0,0,0,0,0,0,0,0,0,0,0,0,0,0,0,0,0,0,0,0,0,0,0,0,0,0,0,0,0,0,0,0,0,0,0,0,0,0,0,0,0,
0,0,0,0,0,0,0,0,0,0,0,0,0,0,0,0,0,0,0,0,0,0,0,0,0,0,0,0,0,0,0,0,0,0,0,0,0,0,0,0,0,0,0,0,
0,0,0,0,0,0,0,0,0,0,0,0,0,0,0,0,0,0,0,0,0,0,0,0,0,0,0,0,0,0,0,0,0,0,0,0,0,0,0,0,0,0,0,0,
0,0,0,0,0,0,0,0,0,0,0,0,0,0,0,0,0,0,0,0,0,0,0,0,0,0,0,0,0,0,0,0,0,0,0,0,0,0,0,0,0,0,0,0,
0,0,0,0,0,0,0,0,42,43,44,0,0,0,0,0,45,46,0,0,0,0,0,0,0,0,0,99,100,0,0,0,0,0,0,0,0,0,0,0,0,0,0,0,
0,0,0,0,0,0,0,0,58,59,60,0,0,0,0,0,61,62,0,0,0,0,0,0,0,0,0,115,116,0,0,0,0,0,0,0,0,0,0,0,0,0,0,0,
0,0,0,0,0,0,0,0,0,0,0,0,0,0,0,0,0,0,0,0,0,0,0,0,0,0,0,0,0,0,0,0,0,0,0,0,0,0,0,0,0,0,0,0,
0,0,0,0,0,0,0,0,0,0,0,0,0,0,0,0,0,0,0,0,0,0,0,0,0,0,0,0,0,0,0,0,0,0,0,0,0,0,0,0,0,0,0,0,
0,0,0,0,0,33,34,35,36,0,0,0,0,0,0,0,0,33,34,35,36,0,0,0,0,0,0,0,0,33,34,35,36,0,0,0,0,0,0,0,0,0,0,0,
0,0,0,0,0,49,50,51,52,0,0,0,0,0,0,0,0,49,50,51,52,0,0,0,0,0,0,0,0,49,50,51,52,0,0,0,0,0,0,0,0,0,0,0,
0,0,0,0,0,17,18,19,17,0,0,0,0,0,0,0,0,17,18,19,17,0,0,0,0,0,0,0,0,17,18,19,17,0,0,0,0,0,0,0,0,0,0,0,
0,0,0,0,0,0,0,0,0,0,0,0,0,0,0,0,0,0,0,0,0,0,0,0,0,0,0,0,0,0,0,0,0,0,0,0,0,0,0,0,0,0,0,0,
0,0,0,0,0,33,34,35,36,0,0,0,0,0,0,0,0,33,34,35,36,0,0,0,0,0,0,0,0,33,34,35,36,0,0,0,0,0,0,0,0,0,0,0,
0,0,0,0,0,49,50,51,52,0,0,0,0,0,0,0,0,49,50,51,52,0,0,0,0,0,0,0,0,49,50,51,52,0,0,0,0,0,0,0,0,0,0,0,
0,0,0,0,0,17,18,19,17,0,0,0,0,0,0,0,0,17,18,19,17,0,0,0,0,0,0,0,0,17,18,19,17,0,0,0,0,0,0,0,0,0,0,0,
0,0,0,0,0,0,0,0,0,0,0,0,0,0,0,0,0,0,0,0,0,0,0,0,0,0,0,0,0,0,0,0,0,0,0,0,0,0,0,0,0,0,0,0,
0,0,0,0,0,33,34,35,36,0,0,0,0,0,0,0,0,33,34,35,36,0,0,0,0,0,0,0,0,33,34,35,36,0,0,0,0,0,0,0,0,0,0,0,
0,0,0,0,0,49,50,51,52,0,0,0,0,0,0,0,0,49,50,51,52,0,0,0,0,0,0,0,0,49,50,51,52,0,0,0,0,0,0,0,0,0,0,0,
0,0,0,0,0,17,18,19,17,0,0,0,0,0,0,0,0,17,18,19,17,0,0,0,0,0,0,0,0,17,18,19,17,0,0,0,0,0,0,0,0,0,0,0,
0,0,0,0,0,0,0,0,0,0,0,0,0,0,0,0,0,0,0,0,0,0,0,0,0,0,0,0,0,0,0,0,0,0,0,0,0,0,0,0,0,0,0,0,
0,0,0,0,0,33,34,35,36,0,0,0,0,0,0,0,0,33,34,35,36,0,0,0,0,0,0,0,0,33,34,35,36,0,0,0,0,0,0,0,0,0,0,0,
0,0,0,0,0,49,50,51,52,0,0,0,0,0,0,0,0,49,50,51,52,0,0,0,0,0,0,0,0,49,50,51,52,0,0,0,0,0,0,0,0,0,0,0,
0,0,0,13,0,17,18,19,17,0,0,0,0,0,0,0,0,17,18,19,17,0,0,0,0,0,0,0,0,17,18,19,17,0,0,0,0,25,0,12,0,0,0,0,
0,0,0,0,0,0,0,0,0,0,0,0,0,0,0,0,0,0,0,0,0,0,0,0,0,0,0,0,0,0,0,0,0,0,0,0,0,0,0,0,0,0,0,0,
0,0,0,0,0,0,0,0,0,0,0,0,0,0,0,0,0,0,0,0,0,0,0,0,0,0,0,0,0,0,0,0,0,0,0,0,0,0,0,0,0,0,0,0,
0,0,0,0,0,0,0,0,0,0,0,0,0,0,0,0,0,0,0,0,0,0,0,0,0,0,0,0,0,0,0,0,0,0,0,0,0,0,0,0,0,0,0,0,
0,0,0,0,0,0,0,0,0,0,0,0,0,0,0,0,0,0,0,0,0,0,0,0,0,0,0,0,0,0,0,0,0,0,0,0,0,0,0,0,0,0,0,0
</data>
  </layer>
  <layer id="4" name="Foreground" width="44" height="28">
    <data encoding="csv">
0,0,0,0,0,0,0,0,0,0,0,0,0,0,0,0,0,0,0,0,0,0,0,0,0,0,0,0,0,0,0,0,0,0,0,0,0,0,0,0,0,0,0,0,
0,0,0,0,107,108,0,0,0,0,65,66,67,68,69,10,0,11,0,0,0,70,71,72,73,0,0,0,0,0,0,0,0,20,0,0,0,0,0,0,0,0,0,0,
0,0,0,0,0,0,0,0,0,0,81,82,83,84,85,0,0,0,0,0,0,86,87,88,89,0,0,0,0,0,0,0,0,0,0,0,0,0,0,0,0,0,0,0,
0,0,0,0,104,105,19,0,0,0,0,0,0,0,0,0,0,104,105,106,20,0,0,0,0,0,0,0,0,0,104,105,106,0,0,0,0,0,0,0,0,0,0,0,
0,0,0,0,0,0,0,0,0,0,0,0,0,0,0,0,0,0,0,0,0,0,0,0,0,0,0,0,0,0,0,0,0,0,0,0,0,0,0,0,0,0,0,0,
0,0,0,0,0,0,0,0,0,0,0,0,0,0,0,0,0,0,0,0,0,0,0,0,0,0,0,0,0,0,0,0,0,0,0,0,0,0,0,0,0,0,0,0,
0,0,0,0,0,0,0,0,0,0,0,0,0,0,0,0,0,0,0,0,0,0,0,0,0,0,0,0,0,0,0,0,0,0,0,0,0,0,0,0,0,0,0,0,
0,0,0,0,0,0,0,0,0,0,97,98,0,0,0,0,0,0,0,0,0,0,0,0,97,98,0,0,0,0,0,0,0,0,0,0,0,0,0,0,0,0,0,0,
0,0,0,0,0,0,0,0,0,0,113,114,0,0,0,0,0,0,0,0,0,0,0,0,113,114,0,0,0,0,0,0,0,0,0,0,0,0,0,0,0,0,0,0,
0,0,0,0,0,0,0,0,0,0,0,0,0,0,0,0,0,0,0,0,0,0,0,0,0,0,0,0,0,0,0,0,0,0,0,0,0,0,0,0,0,0,0,0,
0,0,0,0,0,0,0,0,0,0,0,0,0,0,0,0,0,0,0,0,0,0,0,0,0,0,0,0,0,0,0,0,0,0,0,0,0,0,0,0,0,0,0,0,
0,0,0,0,0,0,0,0,0,0,0,0,0,0,0,0,0,0,0,0,0,0,0,0,0,0,0,0,0,0,0,0,0,0,0,0,0,0,0,0,0,0,0,0,
0,0,0,0,104,105,106,0,0,0,0,0,0,0,0,0,0,104,105,106,0,0,0,0,0,0,0,0,0,0,104,105,106,0,0,0,0,0,0,0,0,0,0,0,
0,0,0,0,0,0,0,0,0,0,0,0,0,0,0,0,0,0,0,0,0,0,0,0,0,0,0,0,0,0,0,0,0,0,0,0,0,0,0,0,0,0,0,0,
0,0,0,0,0,0,0,0,0,0,0,0,0,0,0,0,0,0,0,0,0,0,0,0,0,0,0,0,0,0,0,0,0,0,0,0,0,0,0,0,0,0,0,0,
0,0,0,0,0,0,0,0,0,0,97,98,0,0,0,0,0,0,0,0,0,0,0,0,97,98,0,0,0,0,0,0,0,0,0,0,0,0,0,0,0,0,0,0,
0,0,0,0,0,0,0,0,0,0,113,114,0,0,0,0,0,0,0,0,0,0,0,0,113,114,0,0,0,0,0,0,0,0,0,0,0,0,0,0,0,0,0,0,
0,0,0,0,0,0,0,0,0,0,0,0,0,0,0,0,0,0,0,0,0,0,0,0,0,0,0,0,0,0,0,0,0,0,0,0,0,0,0,0,0,0,0,0,
0,0,0,0,0,0,0,0,0,0,0,0,0,0,0,0,0,0,0,0,0,0,0,0,0,0,0,0,0,0,0,0,0,0,0,0,0,0,0,0,0,0,0,0,
0,0,0,0,0,0,0,0,0,0,0,0,0,0,0,0,0,0,0,0,0,0,0,0,0,0,0,0,0,0,0,0,0,0,0,0,0,0,0,0,0,0,0,0,
0,0,0,0,104,105,106,0,0,0,0,0,0,0,0,0,0,104,105,106,0,0,0,0,0,0,0,0,0,0,104,105,106,0,0,0,0,0,0,0,0,0,0,0,
0,0,0,0,0,0,0,0,0,0,0,0,0,0,0,0,0,0,0,0,0,0,0,0,0,0,0,0,0,0,0,0,0,0,0,0,0,0,0,0,0,0,0,0,
0,0,0,0,0,0,0,0,0,0,0,0,0,0,0,0,0,0,0,0,0,0,0,0,0,0,0,0,0,0,0,0,0,0,0,0,0,0,0,0,0,0,0,0,
0,0,0,0,0,0,0,0,0,0,0,0,0,0,0,0,0,0,0,0,0,0,0,0,0,0,0,0,0,0,0,0,0,0,0,0,0,0,0,0,0,0,0,0,
0,0,0,0,0,0,0,0,0,0,0,0,0,0,0,0,0,0,0,0,0,0,0,0,0,0,0,0,0,0,0,0,0,23,0,0,0,0,0,0,0,0,0,0,
0,0,0,0,0,0,0,0,0,0,0,0,0,0,0,0,0,0,0,0,0,0,0,0,0,0,0,0,0,0,0,0,0,0,0,0,0,0,0,0,0,0,0,0,
0,0,0,0,0,0,0,0,0,0,0,0,0,0,0,0,0,0,0,0,0,0,0,0,0,0,0,0,0,0,0,0,0,0,0,0,0,0,0,0,0,0,0,0,
0,0,0,0,0,0,0,0,0,0,0,0,0,0,0,0,0,0,0,0,0,0,0,0,0,0,0,0,0,0,0,0,0,0,0,0,0,0,0,0,0,0,0,0
</data>
  </layer>
  <objectgroup id="5" name="Collision" visible="1">
    <object id="1" name="TopWall" type="Wall" class="Wall" x="0" y="0" width="1408" height="32" />
    <object id="2" name="BottomWall" type="Wall" class="Wall" x="0" y="864" width="1408" height="32" />
    <object id="3" name="LeftUpper" type="Wall" class="Wall" x="0" y="32" width="32" height="640" />
    <object id="4" name="LeftLower" type="Wall" class="Wall" x="0" y="736" width="32" height="128" />
    <object id="5" name="RightWall" type="Wall" class="Wall" x="1376" y="32" width="32" height="832" />
    <object id="6" name="Bench" type="Wall" class="Wall" x="160" y="288" width="128" height="64" />
    <object id="7" name="Bench" type="Wall" class="Wall" x="544" y="288" width="128" height="64" />
    <object id="8" name="Bench" type="Wall" class="Wall" x="928" y="288" width="128" height="64" />
    <object id="9" name="Bench" type="Wall" class="Wall" x="160" y="416" width="128" height="64" />
    <object id="10" name="Bench" type="Wall" class="Wall" x="544" y="416" width="128" height="64" />
    <object id="11" name="Bench" type="Wall" class="Wall" x="928" y="416" width="128" height="64" />
    <object id="12" name="Bench" type="Wall" class="Wall" x="160" y="544" width="128" height="64" />
    <object id="13" name="Bench" type="Wall" class="Wall" x="544" y="544" width="128" height="64" />
    <object id="14" name="Bench" type="Wall" class="Wall" x="928" y="544" width="128" height="64" />
    <object id="15" name="Bench" type="Wall" class="Wall" x="160" y="672" width="128" height="64" />
    <object id="16" name="Bench" type="Wall" class="Wall" x="544" y="672" width="128" height="64" />
    <object id="17" name="Bench" type="Wall" class="Wall" x="928" y="672" width="128" height="64" />
    <object id="18" name="TeacherDesk" type="Wall" class="Wall" x="256" y="160" width="96" height="64" />
    <object id="19" name="Podium" type="Wall" class="Wall" x="512" y="160" width="64" height="64" />
    <object id="20" name="Console" type="Wall" class="Wall" x="864" y="160" width="64" height="64" />
    <object id="21" name="SmallCabinet" type="Wall" class="Wall" x="1184" y="736" width="32" height="32" />
    <object id="22" name="TrashBin" type="Wall" class="Wall" x="1248" y="736" width="32" height="32" />
  </objectgroup>
  <objectgroup id="6" name="Objects" visible="1">
    <object id="23" name="PlayerSpawn" type="Spawn" class="Spawn" x="112" y="752" point="1">
      <properties>
        <property name="spawnId" value="classroom-default" />
      </properties>
    </object>
    <object id="25" name="TeacherDeskInteraction" type="Dialogue" class="Dialogue" x="304" y="208" point="1">
      <properties>
        <property name="dialogueId" value="classroom-teacher-desk" />
        <property name="prompt" value="Press E to inspect" />
      </properties>
    </object>
    <object id="26" name="ProjectorInteraction" type="Dialogue" class="Dialogue" x="208" y="112" point="1">
      <properties>
        <property name="dialogueId" value="classroom-projector" />
        <property name="prompt" value="Press E to inspect" />
      </properties>
    </object>
    <object id="39" name="ArcadeSpawn1" type="ArcadeSpawn" class="ArcadeSpawn" x="864" y="250" point="1">
      <properties>
        <property name="slotId" value="classroom-1" />
      </properties>
    </object>
    <object id="40" name="ArcadeSpawn2" type="ArcadeSpawn" class="ArcadeSpawn" x="1200" y="650" point="1">
      <properties>
        <property name="slotId" value="classroom-2" />
      </properties>
    </object>
    <object id="41" name="ArcadeSpawn3" type="ArcadeSpawn" class="ArcadeSpawn" x="550" y="780" point="1">
      <properties>
        <property name="slotId" value="classroom-3" />
      </properties>
    </object>
    <object id="37" name="FromCorridor" type="Spawn" class="Spawn" x="80" y="704" point="1">
      <properties>
        <property name="spawnId" value="FromCorridor" />
      </properties>
    </object>
    <object id="38" name="DoorToCorridor" type="Door" class="Door" x="0" y="672" width="32" height="64">
      <properties>
        <property name="label" value="Academic Building 2 Corridor" />
        <property name="targetMap" value="academic-building-2-floor-2-v2.tmx" />
        <property name="targetSpawn" value="FromClassroom" />
        <property name="openDirection" value="right" />
        <property name="initiallyLocked" value="false" type="bool" />
      </properties>
    </object>
  </objectgroup>
  <objectgroup id="7" name="RoomZones" visible="0">
    <object id="27" name="IUT Classroom" type="RoomZone" class="RoomZone" x="32" y="32" width="1344" height="832" />
  </objectgroup>
  <objectgroup id="8" name="Lighting" visible="0">
    <object id="28" name="Light01" type="Light" class="Light" x="176" y="144" point="1">
      <properties>
        <property name="radius" type="int" value="160" />
        <property name="flicker" type="bool" value="false" />
      </properties>
    </object>
    <object id="29" name="Light02" type="Light" class="Light" x="592" y="144" point="1">
      <properties>
        <property name="radius" type="int" value="160" />
        <property name="flicker" type="bool" value="false" />
      </properties>
    </object>
    <object id="30" name="Light03" type="Light" class="Light" x="1008" y="144" point="1">
      <properties>
        <property name="radius" type="int" value="160" />
        <property name="flicker" type="bool" value="false" />
      </properties>
    </object>
    <object id="31" name="Light04" type="Light" class="Light" x="176" y="432" point="1">
      <properties>
        <property name="radius" type="int" value="160" />
        <property name="flicker" type="bool" value="false" />
      </properties>
    </object>
    <object id="32" name="Light05" type="Light" class="Light" x="592" y="432" point="1">
      <properties>
        <property name="radius" type="int" value="160" />
        <property name="flicker" type="bool" value="false" />
      </properties>
    </object>
    <object id="33" name="Light06" type="Light" class="Light" x="1008" y="432" point="1">
      <properties>
        <property name="radius" type="int" value="160" />
        <property name="flicker" type="bool" value="false" />
      </properties>
    </object>
    <object id="34" name="Light07" type="Light" class="Light" x="176" y="688" point="1">
      <properties>
        <property name="radius" type="int" value="160" />
        <property name="flicker" type="bool" value="false" />
      </properties>
    </object>
    <object id="35" name="Light08" type="Light" class="Light" x="592" y="688" point="1">
      <properties>
        <property name="radius" type="int" value="160" />
        <property name="flicker" type="bool" value="false" />
      </properties>
    </object>
    <object id="36" name="Light09" type="Light" class="Light" x="1008" y="688" point="1">
      <properties>
        <property name="radius" type="int" value="160" />
        <property name="flicker" type="bool" value="false" />
      </properties>
    </object>
  </objectgroup>
</map>